X: 38621
T: Stool Of Repentance, The
R: jig
M: 6/8
K: Amajor
A|cAA eAA|gAA f2e|dBB fBB|aBB f2e|
cAA eAA|gAA f2e|dfd ege|fac TB2A:|
|:aga ABA|ABA TB2A|aga BcB|BcB Tf2e|
aga ABA|ABA TB2A|dfd ege|(fa)c TB2A:|

